Newaita-dark/apps/64/com.github.harisvsulaiman.pushy.svg

<svg height="64pt" viewBox="0 0 64 64" width="64pt" xmlns="http://www.w3.org/2000/svg" xmlns:xlink="http://www.w3.org/1999/xlink"><linearGradient id="a"><stop offset="0" stop-opacity=".313725"/><stop offset=".222222" stop-opacity=".27451"/><stop offset="1" stop-opacity="0"/></linearGradient><radialGradient id="b" cx="450.90894" cy="189.57936" gradientTransform="matrix(.00000035 -.156265 -.281277 -.0000002 89.046304 127.190664)" gradientUnits="userSpaceOnUse" r="21.166656" xlink:href="#a"/><radialGradient id="c" cx="450.90894" cy="189.57936" gradientTransform="matrix(-.00000035 .156265 .281277 .0000002 -25.540241 -15.054962)" gradientUnits="userSpaceOnUse" r="21.166656" xlink:href="#a"/><radialGradient id="d" cx="450.90894" cy="189.57936" gradientTransform="matrix(-.00000035 -.156265 .281277 -.0000002 -25.540241 127.190664)" gradientUnits="userSpaceOnUse" r="21.166656" xlink:href="#a"/><radialGradient id="e" cx="450.90894" cy="189.57936" gradientTransform="matrix(.00000035 .156265 -.281277 .0000002 89.0463 -15.054964)" gradientUnits="userSpaceOnUse" r="21.166656" xlink:href="#a"/><linearGradient id="f" gradientTransform="matrix(.0267201 0 0 .125012 24.930772 26.877567)" gradientUnits="userSpaceOnUse" x1="255.32306" x2="255.32304" y1="233.5" y2="254.66666"><stop offset="0" stop-opacity=".27451"/><stop offset="1" stop-opacity="0"/></linearGradient><linearGradient id="g"><stop offset="0" stop-color="#81c784"/><stop offset="1" stop-color="#66bb6a"/></linearGradient><linearGradient id="h" gradientUnits="userSpaceOnUse" x1="254" x2="254" xlink:href="#g" y1="-168.66667" y2="233.5"/><linearGradient id="i" gradientUnits="userSpaceOnUse" x1="31.7530252" x2="31.7530252" xlink:href="#g" y1="16.37656815875" y2="45.48350155"/><radialGradient id="j" cx="31.753048" cy="30.93003699987" gradientUnits="userSpaceOnUse" r="14.55347949992"><stop offset="0" stop-color="#fff" stop-opacity=".196078"/><stop offset="1" stop-color="#cbcbcb" stop-opacity="0"/></radialGradient><path d="m36.382812 56.066406h5.292969v-2.644531h-5.292969zm0 0" fill="url(#b)"/><path d="m27.121094 56.066406h-5.289063v2.648438h5.289063zm0 0" fill="url(#c)"/><path d="m27.121094 56.066406h-5.289063v-2.644531h5.289063zm0 0" fill="url(#d)"/><path d="m36.382812 56.066406h5.292969v2.648438h-5.292969zm0 0" fill="url(#e)"/><path d="m27.121094 55.40625h9.261718v3.308594h-9.261718zm0 0" fill="url(#f)"/><path d="m254.006994-168.660675c111.051895 0 201.074548 90.022653 201.074548 201.074548s-90.022653 201.074548-201.074548 201.074548c-111.051896 0-201.105796-90.022653-201.105796-201.074548s90.0539-201.074548 201.105796-201.074548zm0 0" fill="url(#h)" stroke="#333" stroke-linecap="round" stroke-width="3" transform="matrix(.125012 0 0 .125012 0 26.877566)"/><path d="m31.753906 56.066406c-13.925781 0-25.140625-11.210937-25.140625-25.136718 0-.082032.003907-.164063.003907-.246094.128906 13.8125 11.292968 24.890625 25.136718 24.890625s25.003906-11.078125 25.136719-24.890625v.246094c0 13.925781-11.210937 25.136718-25.136719 25.136718zm0 0" fill-opacity=".196078"/><path d="m31.753906 5.792969c-13.925781 0-25.140625 11.210937-25.140625 25.136719 0 .082031.003907.164062.003907.246093.128906-13.8125 11.292968-24.890625 25.136718-24.890625s25.003906 11.078125 25.136719 24.890625c0-.082031 0-.164062 0-.246093 0-13.925782-11.210937-25.136719-25.136719-25.136719zm0 0" fill="#fff" fill-opacity=".392157"/><path d="m31.753906 5.605469c-14.027344 0-25.328125 11.296875-25.328125 25.324219 0 14.027343 11.300781 25.324218 25.328125 25.324218s25.324219-11.296875 25.324219-25.324218c0-14.027344-11.296875-25.324219-25.324219-25.324219zm0 .375c13.824219 0 24.949219 11.125 24.949219 24.949219 0 13.824218-11.125 24.949218-24.949219 24.949218-13.828125 0-24.953125-11.125-24.953125-24.949218 0-13.824219 11.125-24.949219 24.953125-24.949219zm0 0" fill="#212121"/><path d="m31.753906 9.761719c11.691406 0 21.167969 9.476562 21.167969 21.167969 0 11.691406-9.476563 21.167968-21.167969 21.167968s-21.167968-9.476562-21.167968-21.167968c0-11.691407 9.476562-21.167969 21.167968-21.167969zm0 0" fill="#e0e0e0"/><path d="m31.753906 16.375c8.035156 0 14.550782 6.515625 14.550782 14.554688 0 8.039062-6.515626 14.554687-14.550782 14.554687-8.039062 0-14.554687-6.515625-14.554687-14.554687 0-8.039063 6.515625-14.554688 14.554687-14.554688zm0 0" fill="url(#i)"/><path d="m31.753906 16.542969c-7.15625 0-13.074218 5.109375-14.316406 11.898437 1.414062-6.566406 7.226562-11.460937 14.226562-11.460937 8.066407 0 14.554688 6.492187 14.554688 14.554687 0 .90625-.082031 1.792969-.238281 2.652344.214843-.996094.324219-2.03125.324219-3.09375 0-8.0625-6.488282-14.550781-14.550782-14.550781zm0 0" fill="#fff" fill-opacity=".392157"/><path d="m17.214844 31.589844c-.011719.222656-.015625.441406-.015625.664062 0 8.0625 6.492187 14.550782 14.554687 14.550782s14.550782-6.488282 14.550782-14.550782c0-.222656-.003907-.441406-.011719-.664062-.34375 7.753906-6.699219 13.894531-14.539063 13.894531s-14.195312-6.140625-14.539062-13.894531zm0 0" fill-opacity=".235294"/><path d="m254.006994-84.012509c64.275112 0 116.395134 52.120023 116.395134 116.426382s-52.120022 116.426382-116.395134 116.426382c-64.30636 0-116.426382-52.120023-116.426382-116.426382s52.120022-116.426382 116.426382-116.426382zm0 0" fill="none" stroke="#212121" stroke-linecap="round" stroke-width="3" transform="matrix(.125012 0 0 .125012 0 26.877566)"/><path d="m31.753906 16.375c8.035156 0 14.550782 6.515625 14.550782 14.554688 0 8.039062-6.515626 14.554687-14.550782 14.554687-8.039062 0-14.554687-6.515625-14.554687-14.554687 0-8.039063 6.515625-14.554688 14.554687-14.554688zm0 0" fill="url(#j)"/><path d="m31.753906 9.761719c-11.726562 0-21.167968 9.441406-21.167968 21.167969v.332031c.175781-11.574219 9.550781-20.839844 21.167968-20.839844 11.617188 0 20.988282 9.265625 21.164063 20.839844.003906-.109375.003906-.222657.003906-.332031 0-11.726563-9.441406-21.167969-21.167969-21.167969zm0 0" fill="#fff" fill-opacity=".992157"/><path d="m10.589844 31.453125c-.003906.136719-.003906.273437-.003906.410156 0 11.726563 9.441406 21.167969 21.167968 21.167969 11.726563 0 21.167969-9.441406 21.167969-21.167969 0-.136719-.003906-.273437-.003906-.410156-.222657 11.535156-9.578125 20.75-21.164063 20.75-11.589844 0-20.941406-9.214844-21.164062-20.75zm0 0" fill-opacity=".235294"/><path d="m254.006994-136.913707c93.522319 0 169.32758 75.805261 169.32758 169.32758s-75.805261 169.32758-169.32758 169.32758c-93.52232 0-169.32758-75.805261-169.32758-169.32758s75.80526-169.32758 169.32758-169.32758zm0 0" fill="none" stroke="#212121" stroke-linecap="round" stroke-width="3" transform="matrix(.125012 0 0 .125012 0 26.877566)"/></svg>

<?xml version="1.0" encoding="UTF-8"?>
<svg xmlns="http://www.w3.org/2000/svg" xmlns:xlink="http://www.w3.org/1999/xlink" width="64pt" height="64pt" viewBox="0 0 64 64" version="1.1">
<defs>
<radialGradient id="radial0" gradientUnits="userSpaceOnUse" cx="450.90894" cy="189.57936" fx="450.90894" fy="189.57936" r="21.166656" gradientTransform="matrix(0.000000348341,-0.156265,-0.281277,-0.000000203077,89.046304,127.190664)">
<stop offset="0" style="stop-color:rgb(0%,0%,0%);stop-opacity:0.313725;"/>
<stop offset="0.222222" style="stop-color:rgb(0%,0%,0%);stop-opacity:0.27451;"/>
<stop offset="1" style="stop-color:rgb(0%,0%,0%);stop-opacity:0;"/>
</radialGradient>
<radialGradient id="radial1" gradientUnits="userSpaceOnUse" cx="450.90894" cy="189.57936" fx="450.90894" fy="189.57936" r="21.166656" gradientTransform="matrix(-0.000000348341,0.156265,0.281277,0.000000203077,-25.540241,-15.054962)">
<stop offset="0" style="stop-color:rgb(0%,0%,0%);stop-opacity:0.313725;"/>
<stop offset="0.222222" style="stop-color:rgb(0%,0%,0%);stop-opacity:0.27451;"/>
<stop offset="1" style="stop-color:rgb(0%,0%,0%);stop-opacity:0;"/>
</radialGradient>
<radialGradient id="radial2" gradientUnits="userSpaceOnUse" cx="450.90894" cy="189.57936" fx="450.90894" fy="189.57936" r="21.166656" gradientTransform="matrix(-0.000000348341,-0.156265,0.281277,-0.000000203077,-25.540241,127.190664)">
<stop offset="0" style="stop-color:rgb(0%,0%,0%);stop-opacity:0.313725;"/>
<stop offset="0.222222" style="stop-color:rgb(0%,0%,0%);stop-opacity:0.27451;"/>
<stop offset="1" style="stop-color:rgb(0%,0%,0%);stop-opacity:0;"/>
</radialGradient>
<radialGradient id="radial3" gradientUnits="userSpaceOnUse" cx="450.90894" cy="189.57936" fx="450.90894" fy="189.57936" r="21.166656" gradientTransform="matrix(0.000000348341,0.156265,-0.281277,0.000000203077,89.0463,-15.054964)">
<stop offset="0" style="stop-color:rgb(0%,0%,0%);stop-opacity:0.313725;"/>
<stop offset="0.222222" style="stop-color:rgb(0%,0%,0%);stop-opacity:0.27451;"/>
<stop offset="1" style="stop-color:rgb(0%,0%,0%);stop-opacity:0;"/>
</radialGradient>
<linearGradient id="linear0" gradientUnits="userSpaceOnUse" x1="255.32306" y1="233.5" x2="255.32304" y2="254.66666" gradientTransform="matrix(0.0267201,0,0,0.125012,24.930772,26.877567)">
<stop offset="0" style="stop-color:rgb(0%,0%,0%);stop-opacity:0.27451;"/>
<stop offset="1" style="stop-color:rgb(0%,0%,0%);stop-opacity:0;"/>
</linearGradient>
<linearGradient id="linear1" gradientUnits="userSpaceOnUse" x1="254" y1="-168.66667" x2="254" y2="233.5" >
<stop offset="0" style="stop-color:rgb(50.588235%,78.039216%,51.764706%);stop-opacity:1;"/>
<stop offset="1" style="stop-color:rgb(40%,73.333333%,41.568627%);stop-opacity:1;"/>
</linearGradient>
<linearGradient id="linear2" gradientUnits="userSpaceOnUse" x1="254" y1="-168.66667" x2="254" y2="233.5" gradientTransform="matrix(0.0723753,0,0,0.0723753,13.369699,28.583869)">
<stop offset="0" style="stop-color:rgb(50.588235%,78.039216%,51.764706%);stop-opacity:1;"/>
<stop offset="1" style="stop-color:rgb(40%,73.333333%,41.568627%);stop-opacity:1;"/>
</linearGradient>
<radialGradient id="radial4" gradientUnits="userSpaceOnUse" cx="254" cy="32.416656" fx="254" fy="32.416656" r="116.41666" gradientTransform="matrix(0.125012,0,0,0.125012,0,26.877566)">
<stop offset="0" style="stop-color:rgb(100%,100%,100%);stop-opacity:0.196078;"/>
<stop offset="1" style="stop-color:rgb(79.607843%,79.607843%,79.607843%);stop-opacity:0;"/>
</radialGradient>
</defs>
<g id="surface1">
<path style=" stroke:none;fill-rule:nonzero;fill:url(#radial0);" d="M 36.382812 56.066406 L 41.675781 56.066406 L 41.675781 53.421875 L 36.382812 53.421875 Z M 36.382812 56.066406 "/>
<path style=" stroke:none;fill-rule:nonzero;fill:url(#radial1);" d="M 27.121094 56.066406 L 21.832031 56.066406 L 21.832031 58.714844 L 27.121094 58.714844 Z M 27.121094 56.066406 "/>
<path style=" stroke:none;fill-rule:nonzero;fill:url(#radial2);" d="M 27.121094 56.066406 L 21.832031 56.066406 L 21.832031 53.421875 L 27.121094 53.421875 Z M 27.121094 56.066406 "/>
<path style=" stroke:none;fill-rule:nonzero;fill:url(#radial3);" d="M 36.382812 56.066406 L 41.675781 56.066406 L 41.675781 58.714844 L 36.382812 58.714844 Z M 36.382812 56.066406 "/>
<path style=" stroke:none;fill-rule:nonzero;fill:url(#linear0);" d="M 27.121094 55.40625 L 36.382812 55.40625 L 36.382812 58.714844 L 27.121094 58.714844 Z M 27.121094 55.40625 "/>
<path style="fill-rule:nonzero;fill:url(#linear1);stroke-width:3;stroke-linecap:round;stroke-linejoin:miter;stroke:rgb(20%,20%,20%);stroke-opacity:1;stroke-miterlimit:4;" d="M 254.006994 -168.660675 C 365.058889 -168.660675 455.081542 -78.638022 455.081542 32.413873 C 455.081542 143.465768 365.058889 233.488421 254.006994 233.488421 C 142.955098 233.488421 52.901198 143.465768 52.901198 32.413873 C 52.901198 -78.638022 142.955098 -168.660675 254.006994 -168.660675 Z M 254.006994 -168.660675 " transform="matrix(0.125012,0,0,0.125012,0,26.877566)"/>
<path style=" stroke:none;fill-rule:nonzero;fill:rgb(0%,0%,0%);fill-opacity:0.196078;" d="M 31.753906 56.066406 C 17.828125 56.066406 6.613281 44.855469 6.613281 30.929688 C 6.613281 30.847656 6.617188 30.765625 6.617188 30.683594 C 6.746094 44.496094 17.910156 55.574219 31.753906 55.574219 C 45.597656 55.574219 56.757812 44.496094 56.890625 30.683594 C 56.890625 30.765625 56.890625 30.847656 56.890625 30.929688 C 56.890625 44.855469 45.679688 56.066406 31.753906 56.066406 Z M 31.753906 56.066406 "/>
<path style=" stroke:none;fill-rule:nonzero;fill:rgb(100%,100%,100%);fill-opacity:0.392157;" d="M 31.753906 5.792969 C 17.828125 5.792969 6.613281 17.003906 6.613281 30.929688 C 6.613281 31.011719 6.617188 31.09375 6.617188 31.175781 C 6.746094 17.363281 17.910156 6.285156 31.753906 6.285156 C 45.597656 6.285156 56.757812 17.363281 56.890625 31.175781 C 56.890625 31.09375 56.890625 31.011719 56.890625 30.929688 C 56.890625 17.003906 45.679688 5.792969 31.753906 5.792969 Z M 31.753906 5.792969 "/>
<path style=" stroke:none;fill-rule:nonzero;fill:rgb(12.941176%,12.941176%,12.941176%);fill-opacity:1;" d="M 31.753906 5.605469 C 17.726562 5.605469 6.425781 16.902344 6.425781 30.929688 C 6.425781 44.957031 17.726562 56.253906 31.753906 56.253906 C 45.78125 56.253906 57.078125 44.957031 57.078125 30.929688 C 57.078125 16.902344 45.78125 5.605469 31.753906 5.605469 Z M 31.753906 5.980469 C 45.578125 5.980469 56.703125 17.105469 56.703125 30.929688 C 56.703125 44.753906 45.578125 55.878906 31.753906 55.878906 C 17.925781 55.878906 6.800781 44.753906 6.800781 30.929688 C 6.800781 17.105469 17.925781 5.980469 31.753906 5.980469 Z M 31.753906 5.980469 "/>
<path style=" stroke:none;fill-rule:nonzero;fill:rgb(87.843137%,87.843137%,87.843137%);fill-opacity:1;" d="M 31.753906 9.761719 C 43.445312 9.761719 52.921875 19.238281 52.921875 30.929688 C 52.921875 42.621094 43.445312 52.097656 31.753906 52.097656 C 20.0625 52.097656 10.585938 42.621094 10.585938 30.929688 C 10.585938 19.238281 20.0625 9.761719 31.753906 9.761719 Z M 31.753906 9.761719 "/>
<path style=" stroke:none;fill-rule:nonzero;fill:url(#linear2);" d="M 31.753906 16.375 C 39.789062 16.375 46.304688 22.890625 46.304688 30.929688 C 46.304688 38.96875 39.789062 45.484375 31.753906 45.484375 C 23.714844 45.484375 17.199219 38.96875 17.199219 30.929688 C 17.199219 22.890625 23.714844 16.375 31.753906 16.375 Z M 31.753906 16.375 "/>
<path style=" stroke:none;fill-rule:nonzero;fill:rgb(100%,100%,100%);fill-opacity:0.392157;" d="M 31.753906 16.542969 C 24.597656 16.542969 18.679688 21.652344 17.4375 28.441406 C 18.851562 21.875 24.664062 16.980469 31.664062 16.980469 C 39.730469 16.980469 46.21875 23.472656 46.21875 31.535156 C 46.21875 32.441406 46.136719 33.328125 45.980469 34.1875 C 46.195312 33.191406 46.304688 32.15625 46.304688 31.09375 C 46.304688 23.03125 39.816406 16.542969 31.753906 16.542969 Z M 31.753906 16.542969 "/>
<path style=" stroke:none;fill-rule:nonzero;fill:rgb(0%,0%,0%);fill-opacity:0.235294;" d="M 17.214844 31.589844 C 17.203125 31.8125 17.199219 32.03125 17.199219 32.253906 C 17.199219 40.316406 23.691406 46.804688 31.753906 46.804688 C 39.816406 46.804688 46.304688 40.316406 46.304688 32.253906 C 46.304688 32.03125 46.300781 31.8125 46.292969 31.589844 C 45.949219 39.34375 39.59375 45.484375 31.753906 45.484375 C 23.914062 45.484375 17.558594 39.34375 17.214844 31.589844 Z M 17.214844 31.589844 "/>
<path style="fill:none;stroke-width:3;stroke-linecap:round;stroke-linejoin:miter;stroke:rgb(12.941176%,12.941176%,12.941176%);stroke-opacity:1;stroke-miterlimit:4;" d="M 254.006994 -84.012509 C 318.282106 -84.012509 370.402128 -31.892486 370.402128 32.413873 C 370.402128 96.720232 318.282106 148.840255 254.006994 148.840255 C 189.700634 148.840255 137.580612 96.720232 137.580612 32.413873 C 137.580612 -31.892486 189.700634 -84.012509 254.006994 -84.012509 Z M 254.006994 -84.012509 " transform="matrix(0.125012,0,0,0.125012,0,26.877566)"/>
<path style=" stroke:none;fill-rule:nonzero;fill:url(#radial4);" d="M 31.753906 16.375 C 39.789062 16.375 46.304688 22.890625 46.304688 30.929688 C 46.304688 38.96875 39.789062 45.484375 31.753906 45.484375 C 23.714844 45.484375 17.199219 38.96875 17.199219 30.929688 C 17.199219 22.890625 23.714844 16.375 31.753906 16.375 Z M 31.753906 16.375 "/>
<path style=" stroke:none;fill-rule:nonzero;fill:rgb(100%,100%,100%);fill-opacity:0.992157;" d="M 31.753906 9.761719 C 20.027344 9.761719 10.585938 19.203125 10.585938 30.929688 C 10.585938 31.039062 10.585938 31.152344 10.585938 31.261719 C 10.761719 19.6875 20.136719 10.421875 31.753906 10.421875 C 43.371094 10.421875 52.742188 19.6875 52.917969 31.261719 C 52.921875 31.152344 52.921875 31.039062 52.921875 30.929688 C 52.921875 19.203125 43.480469 9.761719 31.753906 9.761719 Z M 31.753906 9.761719 "/>
<path style=" stroke:none;fill-rule:nonzero;fill:rgb(0%,0%,0%);fill-opacity:0.235294;" d="M 10.589844 31.453125 C 10.585938 31.589844 10.585938 31.726562 10.585938 31.863281 C 10.585938 43.589844 20.027344 53.03125 31.753906 53.03125 C 43.480469 53.03125 52.921875 43.589844 52.921875 31.863281 C 52.921875 31.726562 52.917969 31.589844 52.917969 31.453125 C 52.695312 42.988281 43.339844 52.203125 31.753906 52.203125 C 20.164062 52.203125 10.8125 42.988281 10.589844 31.453125 Z M 10.589844 31.453125 "/>
<path style="fill:none;stroke-width:3;stroke-linecap:round;stroke-linejoin:miter;stroke:rgb(12.941176%,12.941176%,12.941176%);stroke-opacity:1;stroke-miterlimit:4;" d="M 254.006994 -136.913707 C 347.529313 -136.913707 423.334574 -61.108446 423.334574 32.413873 C 423.334574 125.936192 347.529313 201.741453 254.006994 201.741453 C 160.484674 201.741453 84.679414 125.936192 84.679414 32.413873 C 84.679414 -61.108446 160.484674 -136.913707 254.006994 -136.913707 Z M 254.006994 -136.913707 " transform="matrix(0.125012,0,0,0.125012,0,26.877566)"/>
</g>
</svg>
